X: 10010
T: BILL & BETSY'S REEL
C: Bob McQuillen 27 Oct 93
B: Bob's Note Book 10 #10
%R: reel
Z: 2021 John Chambers <jc:trillian.mit.edu>
M: C
L: 1/8
K: G	% and Em
DE \
| G2GB AGED | G2Bd BGED | G2GB dBge | dBGB AGED |\
| G2BG AGBe | gabg e2de | g2ag edge | dBAB G2 :|
K: Em
|: EF \
| GEED E2EF | GEAG FDEF | GEED E2GA | BGAG FDBA |\
| GEED E2EF | GABd edBA | Bded BGAB | GEED E2 :|
%%begintext align
%% Whenever I go down to the
%% Augusta Heritage Arts Workshops, I always have the good fortune to
%% encounter caller-fiddler Bill Wellington, and so far he's never failed to fulfil
%% my heart's desire by getting me a good seat on the keyboard side of a piano,
%% and we go on from there. He and Betsy Bartholomew have a fine relationship,
%% and she was Ms concert coordinator last summer (and the one before that??
%% I forget - help me, Vicky) and she's a real neat lady, and so here's a tune for you
%% both, with fondest best wishes always and many thanks for happy times.
%%endtext

%%sep 1 1 500

%%sep 1 1 500

